X:193
M:C
L:1/8
K:Bb
|: BdfB AcfA | Gf=ef (g/f/=e/d/) cB | AcfA Gf=eg | (f/g/a) c=e f2 F2 |
dfbd cbac | Bg/f/ e/d/c/B/ AGFE | DFBD CBAc | {Bc}d2 FA B2 B,2 :|

